dist/svg/u1F4EF.svg

<?xml version="1.0" encoding="UTF-8"?><svg id="a" xmlns="http://www.w3.org/2000/svg" viewBox="0 0 40 40"><rect width="40" height="40" fill="none"/><g><path d="M37.725,5.081c.665-.863,.05-2.114-1.04-2.114h-11.208c-1.09,0-1.705,1.251-1.04,2.114l1.659,2.152c2.019,2.62,3.113,5.834,3.113,9.141v6.721h3.745v-6.722c0-3.307,1.095-6.521,3.113-9.141l1.658-2.152Z" fill="#ffc100"/><path d="M30.48,30.095c-2.435,3.368-6.382,5.577-10.848,5.616h0c-7.455,.064-13.57-5.949-13.633-13.404-.03-3.611,1.351-7.02,3.877-9.592,2.532-2.576,5.915-4.012,9.525-4.042,3.611-.031,7.018,1.345,9.593,3.877,2.575,2.532,4.011,5.915,4.041,9.526,.026,2.989-.925,5.763-2.555,8.018Zm-10.885,1.238c5.041-.043,9.106-4.18,9.063-9.219-.021-2.442-.991-4.73-2.732-6.442s-4.045-2.643-6.487-2.622c-2.441,.021-4.729,.991-6.44,2.732-1.711,1.744-2.642,4.044-2.622,6.486,.042,5.041,4.178,9.106,9.218,9.064h0Z" fill="#ffda16"/><polygon points="18.936 35.695 5.254 35.83 5.22 31.401 18.902 31.267 18.936 35.695" fill="#ffda16"/><path d="M5.788,31.396v4.424l-1.501,.973c-.985,.639-2.287-.069-2.287-1.243v-3.884c0-1.174,1.301-1.882,2.286-1.243l1.502,.973Z" fill="#ffc100"/><rect x="25.996" y="25.594" width="4.883" height="6.361" rx="1.029" ry="1.029" transform="translate(-11.542 34.964) rotate(-54.138)" fill="#ec4452"/></g></svg>

<svg id="Layer_1" data-name="Layer 1" xmlns="http://www.w3.org/2000/svg" viewBox="0 0 40 40"><defs><style>.cls-1{fill:none;}.cls-2{fill:#ffc100;}.cls-3{fill:#ffda16;}.cls-4{fill:#ec4452;}</style></defs><rect class="cls-1" width="40" height="40"/><path class="cls-2" d="M37.725,5.081a1.314,1.314,0,0,0-1.04-2.115H25.476a1.314,1.314,0,0,0-1.04,2.115L26.1,7.233a14.981,14.981,0,0,1,3.113,9.141V23.1h3.745V16.374a14.976,14.976,0,0,1,3.113-9.141Z"/><path class="cls-3" d="M30.48,30.1a13.512,13.512,0,0,1-10.848,5.616h0A13.53,13.53,0,1,1,30.48,30.1ZM19.6,31.333a9.143,9.143,0,1,0-9.218-9.064A9.153,9.153,0,0,0,19.6,31.333Z"/><polygon class="cls-3" points="18.936 35.695 5.254 35.83 5.22 31.401 18.902 31.267 18.936 35.695"/><path class="cls-2" d="M5.788,31.4V35.82l-1.5.973A1.481,1.481,0,0,1,2,35.55V31.666a1.481,1.481,0,0,1,2.286-1.243Z"/><rect class="cls-4" x="25.996" y="25.594" width="4.883" height="6.361" rx="1.029" transform="translate(-11.542 34.964) rotate(-54.138)"/></svg>
